src/lib/packages/icons/src/assets/line/arrow-forward-circle.svg

<svg width="24" height="24" viewBox="0 0 24 24" fill="none" xmlns="http://www.w3.org/2000/svg">
<path d="M17.1919 10.7871C17.1539 10.8791 17.099 10.962 17.03 11.031L15.53 12.531C15.384 12.677 15.192 12.751 15 12.751C14.808 12.751 14.616 12.678 14.47 12.531C14.177 12.238 14.177 11.763 14.47 11.47L14.6899 11.25H9.75098C8.92398 11.25 8.25098 11.923 8.25098 12.75C8.25098 13.577 8.92398 14.25 9.75098 14.25H15.001C15.415 14.25 15.751 14.586 15.751 15C15.751 15.414 15.415 15.75 15.001 15.75H9.75098C8.09698 15.75 6.75098 14.404 6.75098 12.75C6.75098 11.096 8.09698 9.75 9.75098 9.75H14.6899L14.47 9.53003C14.177 9.23703 14.177 8.76199 14.47 8.46899C14.763 8.17599 15.238 8.17599 15.531 8.46899L17.031 9.96899C17.1 10.038 17.1551 10.1209 17.1931 10.2129C17.2681 10.3969 17.2679 10.6031 17.1919 10.7871ZM22.75 12C22.75 17.928 17.928 22.75 12 22.75C6.072 22.75 1.25 17.928 1.25 12C1.25 6.072 6.072 1.25 12 1.25C17.928 1.25 22.75 6.072 22.75 12ZM21.25 12C21.25 6.899 17.101 2.75 12 2.75C6.899 2.75 2.75 6.899 2.75 12C2.75 17.101 6.899 21.25 12 21.25C17.101 21.25 21.25 17.101 21.25 12Z" fill="currentColor"/>
</svg>

<svg xmlns="http://www.w3.org/2000/svg" width="24" height="24" fill="none"><path fill="currentColor" d="M17.192 10.787a.748.748 0 0 1-.162.244l-1.5 1.5a.748.748 0 0 1-1.06 0 .75.75 0 0 1 0-1.061l.22-.22H9.75c-.827 0-1.5.673-1.5 1.5s.673 1.5 1.5 1.5H15a.75.75 0 0 1 0 1.5H9.75c-1.654 0-3-1.346-3-3s1.346-3 3-3h4.939l-.22-.22a.75.75 0 0 1 1.061-1.061l1.5 1.5a.749.749 0 0 1 .16.818ZM22.75 12c0 5.928-4.822 10.75-10.75 10.75S1.25 17.928 1.25 12 6.072 1.25 12 1.25 22.75 6.072 22.75 12Zm-1.5 0c0-5.101-4.149-9.25-9.25-9.25S2.75 6.899 2.75 12s4.149 9.25 9.25 9.25 9.25-4.149 9.25-9.25Z"/></svg>
